images/indikatorenset/4152.svg

<?xml version="1.0" standalone="no"?>
<!DOCTYPE svg PUBLIC "-//W3C//DTD SVG 1.1//EN" "http://www.w3.org/Graphics/SVG/1.1/DTD/svg11.dtd">
<svg xmlns:xlink="http://www.w3.org/1999/xlink" version="1.1" class="highcharts-root" style="font-family:arial;font-size:12px;" xmlns="http://www.w3.org/2000/svg" viewBox="0 0 485 415">
  <desc>
    Created with Highstock 5.0.14
  </desc>
  <defs>
    <clipPath id="highcharts-cabutdp-8">
      <rect x="0" y="0" width="383" height="280" fill="none"/>
    </clipPath>
    <clipPath id="highcharts-cabutdp-9">
      <rect x="0" y="0" width="383" height="280" fill="none"/>
    </clipPath>
    <clipPath id="highcharts-cabutdp-10">
      <rect x="0" y="0" width="383" height="280" fill="none"/>
    </clipPath>
  </defs>
  <rect fill="#fbfbfb" class="highcharts-background" x="0" y="0" width="485" height="415" rx="0" ry="0"/>
  <rect fill="none" class="highcharts-plot-background" x="52" y="75" width="383" height="280"/>
  <g class="highcharts-pane-group"/>
  <g class="highcharts-grid highcharts-xaxis-grid ">
    <path fill="none" class="highcharts-grid-line" d="M 86.5 75 L 86.5 355" opacity="1"/>
    <path fill="none" class="highcharts-grid-line" d="M 148.5 75 L 148.5 355" opacity="1"/>
    <path fill="none" class="highcharts-grid-line" d="M 211.5 75 L 211.5 355" opacity="1"/>
    <path fill="none" class="highcharts-grid-line" d="M 274.5 75 L 274.5 355" opacity="1"/>
    <path fill="none" class="highcharts-grid-line" d="M 337.5 75 L 337.5 355" opacity="1"/>
    <path fill="none" class="highcharts-grid-line" d="M 399.5 75 L 399.5 355" opacity="1"/>
  </g>
  <g class="highcharts-grid highcharts-yaxis-grid ">
    <path fill="none" stroke="#e6e6e6" stroke-width="1" class="highcharts-grid-line" d="M 52 355.5 L 435 355.5" opacity="1"/>
    <path fill="none" stroke="#e6e6e6" stroke-width="1" class="highcharts-grid-line" d="M 52 285.5 L 435 285.5" opacity="1"/>
    <path fill="none" stroke="#e6e6e6" stroke-width="1" class="highcharts-grid-line" d="M 52 215.5 L 435 215.5" opacity="1"/>
    <path fill="none" stroke="#e6e6e6" stroke-width="1" class="highcharts-grid-line" d="M 52 145.5 L 435 145.5" opacity="1"/>
    <path fill="none" stroke="#e6e6e6" stroke-width="1" class="highcharts-grid-line" d="M 52 74.5 L 435 74.5" opacity="1"/>
  </g>
  <g class="highcharts-grid highcharts-yaxis-grid ">
    <path fill="none" stroke="#e6e6e6" stroke-width="1" class="highcharts-grid-line" d="M 52 355.5 L 435 355.5" opacity="1"/>
    <path fill="none" stroke="#e6e6e6" stroke-width="1" class="highcharts-grid-line" d="M 52 285.5 L 435 285.5" opacity="1"/>
    <path fill="none" stroke="#e6e6e6" stroke-width="1" class="highcharts-grid-line" d="M 52 215.5 L 435 215.5" opacity="1"/>
    <path fill="none" stroke="#e6e6e6" stroke-width="1" class="highcharts-grid-line" d="M 52 145.5 L 435 145.5" opacity="1"/>
    <path fill="none" stroke="#e6e6e6" stroke-width="1" class="highcharts-grid-line" d="M 52 74.5 L 435 74.5" opacity="1"/>
  </g>
  <rect fill="none" class="highcharts-plot-border" x="52" y="75" width="383" height="280"/>
  <g class="highcharts-axis highcharts-xaxis ">
    <path fill="none" class="highcharts-tick" stroke="#FFFFFF" stroke-width="1" d="M 86.5 355 L 86.5 365" opacity="1"/>
    <path fill="none" class="highcharts-tick" stroke="#FFFFFF" stroke-width="1" d="M 148.5 355 L 148.5 365" opacity="1"/>
    <path fill="none" class="highcharts-tick" stroke="#FFFFFF" stroke-width="1" d="M 211.5 355 L 211.5 365" opacity="1"/>
    <path fill="none" class="highcharts-tick" stroke="#FFFFFF" stroke-width="1" d="M 274.5 355 L 274.5 365" opacity="1"/>
    <path fill="none" class="highcharts-tick" stroke="#FFFFFF" stroke-width="1" d="M 337.5 355 L 337.5 365" opacity="1"/>
    <path fill="none" class="highcharts-tick" stroke="#FFFFFF" stroke-width="1" d="M 399.5 355 L 399.5 365" opacity="1"/>
    <path fill="none" class="highcharts-axis-line" stroke="#ccd6eb" stroke-width="1" d="M 52 355.5 L 435 355.5"/>
  </g>
  <g class="highcharts-axis highcharts-yaxis ">
    <path fill="none" class="highcharts-axis-line" d="M 52 75 L 52 355"/>
  </g>
  <g class="highcharts-axis highcharts-yaxis ">
    <path fill="none" class="highcharts-axis-line" d="M 435 75 L 435 355"/>
  </g>
  <g class="highcharts-series-group">
    <g class="highcharts-series highcharts-series-0 highcharts-column-series highcharts-color-undefined " transform="translate(52,75) scale(1 1)" clip-path="url(#highcharts-cabutdp-9)">
      <rect x="18.5" y="144.5" width="31" height="136" fill="#923f8d" stroke="#ffffff" stroke-width="1" class="highcharts-point"/>
      <rect x="81.5" y="105.5" width="31" height="175" fill="#923f8d" stroke="#ffffff" stroke-width="1" class="highcharts-point"/>
      <rect x="144.5" y="80.5" width="31" height="200" fill="#923f8d" stroke="#ffffff" stroke-width="1" class="highcharts-point"/>
      <rect x="207.5" y="62.5" width="31" height="218" fill="#923f8d" stroke="#ffffff" stroke-width="1" class="highcharts-point"/>
      <rect x="270.5" y="48.5" width="31" height="232" fill="#923f8d" stroke="#ffffff" stroke-width="1" class="highcharts-point"/>
      <rect x="332.5" y="31.5" width="31" height="249" fill="#923f8d" stroke="#ffffff" stroke-width="1" class="highcharts-point"/>
    </g>
    <g class="highcharts-markers highcharts-series-0 highcharts-column-series highcharts-color-undefined " transform="translate(52,75) scale(1 1)" clip-path="none"/>
    <g class="highcharts-series highcharts-series-1 highcharts-line-series highcharts-color-undefined " transform="translate(52,75) scale(1 1)" clip-path="url(#highcharts-cabutdp-10)">
      <path fill="none" d="M 34.532786885244 139.9049226211 L 97.319672131146 102.01899640858335 L 160.10655737705 76.96168508641668 L 222.89344262295 58.875307940166635 L 285.68032786885 43.58736236143332 L 348.46721311476 26.80694770273334" class="highcharts-graph" stroke="#cd9c00" stroke-width="2" stroke-linejoin="round" stroke-linecap="round"/>
    </g>
    <g class="highcharts-markers highcharts-series-1 highcharts-line-series highcharts-color-undefined " transform="translate(52,75) scale(1 1)" clip-path="none">
      <path fill="#cd9c00" d="M 38 140 A 4 4 0 1 1 37.99999800000017 139.99600000066667 Z" class="highcharts-point"/>
      <path fill="#cd9c00" d="M 101 102 A 4 4 0 1 1 100.99999800000016 101.99600000066667 Z" class="highcharts-point"/>
      <path fill="#cd9c00" d="M 164 77 A 4 4 0 1 1 163.99999800000018 76.99600000066667 Z" class="highcharts-point"/>
      <path fill="#cd9c00" d="M 226 59 A 4 4 0 1 1 225.99999800000018 58.99600000066666 Z" class="highcharts-point"/>
      <path fill="#cd9c00" d="M 289 44 A 4 4 0 1 1 288.9999980000002 43.99600000066666 Z" class="highcharts-point"/>
      <path fill="#cd9c00" d="M 352 27 A 4 4 0 1 1 351.9999980000002 26.996000000666665 Z" class="highcharts-point"/>
    </g>
  </g>
  <text x="10" text-anchor="start" class="highcharts-title" style="color:#000000;font-size:14px;font-weight:bold;fill:#000000;" y="21">
    <tspan>Haushalte mit Familienmietzinsbeiträgen</tspan>
  </text>
  <g class="highcharts-legend" transform="translate(10,35)">
    <rect fill="none" class="highcharts-legend-box" rx="0" ry="0" x="0" y="0" width="337" height="25" visibility="visible"/>
    <g>
      <g>
        <g class="highcharts-legend-item highcharts-column-series highcharts-color-undefined highcharts-series-0" transform="translate(8,3)">
          <text x="21" style="color:#333333;font-size:12px;font-weight:normal;cursor:pointer;fill:#333333;" text-anchor="start" y="15">
            <tspan>Anzahl Haushalte</tspan>
          </text>
          <rect x="2" y="4" width="12" height="12" fill="#923f8d" class="highcharts-point"/>
        </g>
        <g class="highcharts-legend-item highcharts-line-series highcharts-color-undefined highcharts-series-1" transform="translate(143,3)">
          <path fill="none" d="M 0 11 L 16 11" class="highcharts-graph" stroke="#cd9c00" stroke-width="2"/>
          <path fill="#cd9c00" d="M 12 11 A 4 4 0 1 1 11.999998000000167 10.996000000666664 Z" class="highcharts-point"/>
          <text x="21" y="15" style="color:#333333;font-size:12px;font-weight:normal;cursor:pointer;fill:#333333;" text-anchor="start">
            <tspan>Anteil in Prozent (rechte Skala)</tspan>
          </text>
        </g>
      </g>
    </g>
  </g>
  <g class="highcharts-axis-labels highcharts-xaxis-labels ">
    <text x="86.53278688524355" style="color:#000000;cursor:default;font-size:11px;fill:#000000;" text-anchor="middle" transform="translate(0,0)" y="374" opacity="1">
      <tspan>2011</tspan>
    </text>
    <text x="149.31967213114615" style="color:#000000;cursor:default;font-size:11px;fill:#000000;" text-anchor="middle" transform="translate(0,0)" y="374" opacity="1">
      <tspan>2012</tspan>
    </text>
    <text x="212.10655737704872" style="color:#000000;cursor:default;font-size:11px;fill:#000000;" text-anchor="middle" transform="translate(0,0)" y="374" opacity="1">
      <tspan>2013</tspan>
    </text>
    <text x="274.8934426229513" style="color:#000000;cursor:default;font-size:11px;fill:#000000;" text-anchor="middle" transform="translate(0,0)" y="374" opacity="1">
      <tspan>2014</tspan>
    </text>
    <text x="337.68032786885385" style="color:#000000;cursor:default;font-size:11px;fill:#000000;" text-anchor="middle" transform="translate(0,0)" y="374" opacity="1">
      <tspan>2015</tspan>
    </text>
    <text x="400.4672131147564" style="color:#000000;cursor:default;font-size:11px;fill:#000000;" text-anchor="middle" transform="translate(0,0)" y="374" opacity="1">
      <tspan>2016</tspan>
    </text>
  </g>
  <g class="highcharts-axis-labels highcharts-yaxis-labels ">
    <text x="37" style="color:#000000;cursor:default;font-size:11px;fill:#000000;" text-anchor="end" transform="translate(0,0)" y="360" opacity="1">
      <tspan>0</tspan>
    </text>
    <text x="37" style="color:#000000;cursor:default;font-size:11px;fill:#000000;" text-anchor="end" transform="translate(0,0)" y="290" opacity="1">
      <tspan>600</tspan>
    </text>
    <text x="37" style="color:#000000;cursor:default;font-size:11px;fill:#000000;" text-anchor="end" transform="translate(0,0)" y="220" opacity="1">
      <tspan>1 200</tspan>
    </text>
    <text x="37" style="color:#000000;cursor:default;font-size:11px;fill:#000000;" text-anchor="end" transform="translate(0,0)" y="150" opacity="1">
      <tspan>1 800</tspan>
    </text>
    <text x="37" style="color:#000000;cursor:default;font-size:11px;fill:#000000;" text-anchor="end" transform="translate(0,0)" y="80" opacity="1">
      <tspan>2 400</tspan>
    </text>
  </g>
  <g class="highcharts-axis-labels highcharts-yaxis-labels ">
    <text x="450" style="color:#000000;cursor:default;font-size:11px;fill:#000000;" text-anchor="start" transform="translate(0,0)" y="360" opacity="1">
      <tspan>0.0%</tspan>
    </text>
    <text x="450" style="color:#000000;cursor:default;font-size:11px;fill:#000000;" text-anchor="start" transform="translate(0,0)" y="290" opacity="1">
      <tspan>0.6%</tspan>
    </text>
    <text x="450" style="color:#000000;cursor:default;font-size:11px;fill:#000000;" text-anchor="start" transform="translate(0,0)" y="220" opacity="1">
      <tspan>1.2%</tspan>
    </text>
    <text x="450" style="color:#000000;cursor:default;font-size:11px;fill:#000000;" text-anchor="start" transform="translate(0,0)" y="150" opacity="1">
      <tspan>1.8%</tspan>
    </text>
    <text x="450" style="color:#000000;cursor:default;font-size:11px;fill:#000000;" text-anchor="start" transform="translate(0,0)" y="80" opacity="1">
      <tspan>2.4%</tspan>
    </text>
  </g>
  <text x="10" class="highcharts-credits" text-anchor="start" style="cursor:default;color:#000000;font-size:10px;fill:#000000;" y="400">
    <tspan>Quelle: Statistisches Amt Basel-Stadt, Basler Informationssystem Sozialleistungen BISS</tspan>
  </text>
</svg>

<svg class="highcharts-root" xmlns="http://www.w3.org/2000/svg" viewBox="0 0 485 415" font-family="arial" font-size="12">
    <defs>
        <clipPath id="a">
            <path fill="none" d="M0 0h383v280H0z"/>
        </clipPath>
        <clipPath id="b">
            <path fill="none" d="M0 0h383v280H0z"/>
        </clipPath>
    </defs>
    <rect fill="#fbfbfb" class="highcharts-background" width="485" height="415" rx="0" ry="0"/>
    <path fill="none" class="highcharts-plot-background" d="M52 75h383v280H52z"/>
    <g class="highcharts-grid highcharts-xaxis-grid">
        <path fill="none" class="highcharts-grid-line" d="M86.5 75v280m62-280v280m63-280v280m63-280v280m63-280v280m62-280v280"/>
    </g>
    <g class="highcharts-grid highcharts-yaxis-grid">
        <path fill="none" stroke="#e6e6e6" class="highcharts-grid-line" d="M52 355.5h383m-383-70h383m-383-70h383m-383-70h383m-383-71h383"/>
    </g>
    <g class="highcharts-grid highcharts-yaxis-grid">
        <path fill="none" stroke="#e6e6e6" class="highcharts-grid-line" d="M52 355.5h383m-383-70h383m-383-70h383m-383-70h383m-383-71h383"/>
    </g>
    <path fill="none" class="highcharts-plot-border" d="M52 75h383v280H52z"/>
    <g class="highcharts-axis highcharts-xaxis">
        <path fill="none" class="highcharts-tick" stroke="#FFF" d="M86.5 355v10m62-10v10m63-10v10m63-10v10m63-10v10m62-10v10"/>
        <path fill="none" class="highcharts-axis-line" stroke="#ccd6eb" d="M52 355.5h383"/>
    </g>
    <g class="highcharts-axis highcharts-yaxis">
        <path fill="none" class="highcharts-axis-line" d="M52 75v280"/>
    </g>
    <g class="highcharts-axis highcharts-yaxis">
        <path fill="none" class="highcharts-axis-line" d="M435 75v280"/>
    </g>
    <g class="highcharts-series-group">
        <g class="highcharts-series highcharts-series-0 highcharts-column-series highcharts-color-undefined" transform="translate(52 75)" clip-path="url(#a)">
            <path fill="#923f8d" stroke="#fff" class="highcharts-point" d="M18.5 144.5h31v136h-31zm63-39h31v175h-31zm63-25h31v200h-31zm63-18h31v218h-31zm63-14h31v232h-31zm62-17h31v249h-31z"/>
        </g>
        <g class="highcharts-series highcharts-series-1 highcharts-line-series highcharts-color-undefined" transform="translate(52 75)" clip-path="url(#b)">
            <path fill="none" d="M34.533 139.905l62.787-37.886 62.787-25.057 62.786-18.087 62.787-15.288 62.787-16.78" class="highcharts-graph" stroke="#cd9c00" stroke-width="2" stroke-linejoin="round" stroke-linecap="round"/>
        </g>
        <g class="highcharts-markers highcharts-series-1 highcharts-line-series highcharts-color-undefined">
            <path fill="#cd9c00" d="M90 215a4 4 0 1 1 0-.004zm63-38a4 4 0 1 1 0-.004zm63-25a4 4 0 1 1 0-.004zm62-18a4 4 0 1 1 0-.004zm63-15a4 4 0 1 1 0-.004zm63-17a4 4 0 1 1 0-.004z" class="highcharts-point"/>
        </g>
    </g>
    <text x="10" class="highcharts-title" y="21" color="#000" font-size="14" font-weight="700">
        <tspan>Haushalte mit Familienmietzinsbeiträgen</tspan>
    </text>
    <g class="highcharts-legend" transform="translate(10 35)">
        <rect fill="none" class="highcharts-legend-box" rx="0" ry="0" width="337" height="25"/>
        <g class="highcharts-legend-item highcharts-column-series highcharts-color-undefined highcharts-series-0">
            <text x="21" y="15" color="#333" font-weight="400" cursor="pointer" fill="#333" transform="translate(8 3)">
                <tspan>Anzahl Haushalte</tspan>
            </text>
            <path fill="#923f8d" class="highcharts-point" d="M10 7h12v12H10z"/>
        </g>
        <g class="highcharts-legend-item highcharts-line-series highcharts-color-undefined highcharts-series-1">
            <path fill="none" d="M143 14h16" class="highcharts-graph" stroke="#cd9c00" stroke-width="2"/>
            <path fill="#cd9c00" d="M155 14a4 4 0 1 1 0-.004z" class="highcharts-point"/>
            <text x="21" y="15" color="#333" font-weight="400" cursor="pointer" fill="#333" transform="translate(143 3)">
                <tspan>Anteil in Prozent (rechte Skala)</tspan>
            </text>
        </g>
    </g>
    <g class="highcharts-axis-labels highcharts-xaxis-labels" text-anchor="middle" color="#000" cursor="default" font-size="11">
        <text x="86.533" y="374">
            <tspan>2011</tspan>
        </text>
        <text x="149.32" y="374">
            <tspan>2012</tspan>
        </text>
        <text x="212.107" y="374">
            <tspan>2013</tspan>
        </text>
        <text x="274.893" y="374">
            <tspan>2014</tspan>
        </text>
        <text x="337.68" y="374">
            <tspan>2015</tspan>
        </text>
        <text x="400.467" y="374">
            <tspan>2016</tspan>
        </text>
    </g>
    <g class="highcharts-axis-labels highcharts-yaxis-labels" text-anchor="end" color="#000" cursor="default" font-size="11">
        <text x="37" y="360">
            <tspan>0</tspan>
        </text>
        <text x="37" y="290">
            <tspan>600</tspan>
        </text>
        <text x="37" y="220">
            <tspan>1 200</tspan>
        </text>
        <text x="37" y="150">
            <tspan>1 800</tspan>
        </text>
        <text x="37" y="80">
            <tspan>2 400</tspan>
        </text>
    </g>
    <g class="highcharts-axis-labels highcharts-yaxis-labels" color="#000" cursor="default" font-size="11">
        <text x="450" y="360">
            <tspan>0.0%</tspan>
        </text>
        <text x="450" y="290">
            <tspan>0.6%</tspan>
        </text>
        <text x="450" y="220">
            <tspan>1.2%</tspan>
        </text>
        <text x="450" y="150">
            <tspan>1.8%</tspan>
        </text>
        <text x="450" y="80">
            <tspan>2.4%</tspan>
        </text>
    </g>
    <text x="10" class="highcharts-credits" y="400" cursor="default" color="#000" font-size="10">
        <tspan>Quelle: Statistisches Amt Basel-Stadt, Basler Informationssystem Sozialleistungen BISS</tspan>
    </text>
</svg>
